images/fries.svg

<svg width="43" height="56" viewBox="0 0 43 56" fill="none" xmlns="http://www.w3.org/2000/svg">
<path d="M41.1207 18.3493H41.0566L42.9288 9.28829C43.0668 8.62093 42.9301 7.93435 42.5537 7.40499C42.2012 6.90853 41.6765 6.59152 41.0771 6.51205L37.918 6.09378C37.6805 6.06216 37.4438 6.07156 37.2148 6.11471L37.2426 5.8793C37.3229 5.19614 37.1263 4.51468 36.7029 4.01053C36.3065 3.538 35.7528 3.25858 35.1435 3.22397L32.8043 3.09024C32.8812 2.42588 32.7026 1.75767 32.3079 1.24668C31.928 0.75535 31.3867 0.447306 30.7839 0.379802L27.5244 0.0140798C26.922 -0.0538522 26.3234 0.125591 25.8389 0.518656C25.3168 0.942056 24.9793 1.58121 24.9122 2.27207L24.6157 5.34567C24.5371 5.22903 24.4487 5.11923 24.35 5.0184C23.9168 4.57535 23.3442 4.33139 22.7376 4.33139H19.502C19.0718 4.33139 18.6603 4.45615 18.3023 4.68558L18.0695 2.27207C18.0028 1.58121 17.6649 0.942056 17.1428 0.518656C16.6587 0.125591 16.0606 -0.0534249 15.4573 0.0140798L12.1978 0.379802C11.595 0.447306 11.0537 0.75535 10.6738 1.24668C10.2791 1.75767 10.1005 2.42588 10.1774 3.09024L7.8382 3.22397C7.22937 3.25858 6.67524 3.538 6.27875 4.01053C5.85535 4.51468 5.65882 5.19614 5.73914 5.8793L5.76691 6.11514C5.53791 6.07199 5.30164 6.06216 5.06366 6.09378L1.90461 6.51205C1.30518 6.59152 0.780949 6.90853 0.428044 7.40499C0.0516398 7.93435 -0.085079 8.62093 0.0529215 9.28829L1.92511 18.3493H1.86103C1.31116 18.3493 0.792485 18.5903 0.43787 19.0111C0.083256 19.4319 -0.0662802 19.9844 0.0272867 20.5261L5.87629 54.4554C6.03095 55.3504 6.80213 55.9998 7.71045 55.9998H35.2717C36.18 55.9998 36.9512 55.3504 37.1054 54.4554L42.9548 20.5261C43.0484 19.9844 42.8984 19.4319 42.5443 19.0111C42.1896 18.5903 41.671 18.3493 41.1207 18.3493ZM36.9755 8.15224C37.1315 7.86172 37.4246 7.68227 37.7031 7.7203L40.8622 8.13815C41.045 8.1625 41.1557 8.26931 41.2164 8.35519C41.3296 8.51455 41.3685 8.73372 41.3223 8.95632L39.3818 18.3489H38.1825L38.981 12.0419C39.0618 11.4066 38.8798 10.7695 38.482 10.2945C38.0949 9.83132 37.5472 9.55916 36.9405 9.52797L36.814 9.52156L36.9755 8.15224ZM35.8566 11.1152L36.8568 11.1665C37.0435 11.1763 37.1597 11.2703 37.2242 11.3472C37.3314 11.4754 37.3771 11.6488 37.3536 11.8355L36.5286 18.3493H32.6962L33.1397 15.7593C33.2316 15.2231 33.1239 14.6857 32.8411 14.2277L33.0363 11.6988C33.0551 11.4531 33.1906 11.237 33.3781 11.1139C33.4905 11.0404 33.6216 11.0003 33.7575 11.0079L35.8553 11.1152H35.8566ZM31.7836 4.67703C31.7943 4.67746 31.805 4.67661 31.8161 4.67746L35.0504 4.8616C35.246 4.87314 35.3742 4.97867 35.4468 5.06497C35.5806 5.22476 35.6412 5.45163 35.6135 5.68747L35.3618 7.82967L35.1726 9.4374L33.8413 9.36946C32.5928 9.30538 31.4991 10.2936 31.4004 11.5723L31.2748 13.1972L30.5075 13.0762L31.0338 5.48794C31.0646 5.03763 31.4064 4.67404 31.7836 4.67703ZM31.5226 15.4825L31.0176 18.4326C30.4827 18.5984 30.0443 19.0009 29.8337 19.5494C29.1928 21.2183 28.0768 22.6444 26.6063 23.6741C26.4486 23.7843 26.288 23.8877 26.1248 23.9868L27.4437 14.8395C27.4655 14.687 27.5458 14.5528 27.6697 14.4618C27.7936 14.3699 27.9453 14.3332 28.0974 14.3571L29.4966 14.5776L29.4987 14.578L31.0488 14.8224C31.2009 14.8463 31.3342 14.9283 31.4239 15.0535C31.5136 15.1787 31.5486 15.3308 31.5226 15.4825ZM24.7144 21.4084L26.5452 2.42972C26.5704 2.17338 26.6892 1.94138 26.8724 1.7927C26.9716 1.71238 27.1343 1.62095 27.3416 1.64445L30.6014 2.00974C30.8035 2.03239 30.9351 2.15287 31.0095 2.24943C31.1492 2.43015 31.2086 2.67838 31.1718 2.93045L31.1432 3.12784C31.1295 3.13211 31.1163 3.13724 31.1026 3.14151C31.0855 3.14707 31.0684 3.15305 31.0518 3.15903C31.0005 3.17655 30.9496 3.19577 30.9001 3.21714C30.8873 3.22226 30.8745 3.22782 30.8616 3.2338C30.7647 3.27695 30.6711 3.32651 30.5809 3.38248C30.5728 3.38718 30.5651 3.39231 30.557 3.39743C30.501 3.43332 30.4459 3.47135 30.3929 3.51194C30.3882 3.51535 30.3835 3.51834 30.3788 3.52219C30.3502 3.54398 30.3225 3.56662 30.2951 3.58969C30.2891 3.59482 30.2831 3.59995 30.2772 3.60507C30.2302 3.64566 30.1849 3.68753 30.1409 3.73154C30.1298 3.74265 30.1191 3.75333 30.108 3.76486C30.0858 3.78794 30.0631 3.81143 30.0418 3.83579C30.0183 3.86228 29.9952 3.88919 29.973 3.91654C29.952 3.94217 29.9319 3.96781 29.9119 3.99387C29.8969 4.01395 29.8824 4.03446 29.8674 4.05496C29.8486 4.08145 29.8298 4.1088 29.8115 4.13657C29.791 4.16818 29.7709 4.20023 29.7517 4.2327C29.7397 4.25278 29.7282 4.27286 29.717 4.29337C29.6965 4.33011 29.6769 4.36728 29.6581 4.4053C29.6495 4.42325 29.6406 4.44162 29.6325 4.45999C29.6145 4.49844 29.5974 4.53775 29.5812 4.57748C29.5748 4.59372 29.5684 4.60953 29.562 4.62576C29.5432 4.67532 29.5256 4.72574 29.5094 4.77658C29.5056 4.78897 29.5021 4.80179 29.4987 4.81461C29.4846 4.86118 29.4722 4.9086 29.4607 4.95688C29.4586 4.96713 29.4556 4.97739 29.4534 4.98807C29.441 5.04361 29.4308 5.10001 29.4218 5.15683C29.4201 5.16965 29.418 5.18289 29.4163 5.19571C29.4081 5.25467 29.4013 5.31448 29.397 5.37472L28.8809 12.8199L28.3524 12.737C27.7637 12.6434 27.1749 12.7879 26.6956 13.1416C26.2158 13.4958 25.9047 14.0158 25.8197 14.6058L24.6913 22.4342L24.7144 21.4084ZM19.0645 6.1647C19.15 6.07669 19.2952 5.97201 19.502 5.97201H22.7376C22.9443 5.97201 23.0905 6.07711 23.1768 6.16555C23.328 6.32022 23.4117 6.54324 23.4066 6.77737L23.0836 20.9662L22.7636 14.8369C22.7303 14.1978 22.4628 13.6052 22.0108 13.1681C21.5421 12.7152 20.9367 12.4841 20.3035 12.5178L18.9863 12.5875L18.9586 11.5108L18.8377 6.77523C18.8317 6.5411 18.9146 6.31851 19.0645 6.1647ZM20.3903 14.1559C20.6218 14.1452 20.791 14.2708 20.8705 14.3477C21.0234 14.4951 21.114 14.6993 21.1256 14.9224L21.666 25.2796C21.6079 25.2805 21.5494 25.2826 21.4908 25.2826C20.1066 25.2826 18.7637 24.9686 17.5439 24.3662L16.6121 15.1202C16.5895 14.8972 16.6519 14.6814 16.783 14.5284C16.8578 14.4417 16.9881 14.3358 17.1863 14.3251L20.3903 14.1559ZM11.9722 2.24943C12.047 2.15244 12.1786 2.03239 12.3807 2.00974L15.6401 1.64445C15.8482 1.62095 16.0101 1.71238 16.1097 1.7927C16.2925 1.94138 16.4117 2.17338 16.4365 2.42972L17.3192 11.5813L17.3474 12.6742L17.0996 12.687C16.4925 12.7195 15.9379 12.9942 15.5376 13.4608C15.1159 13.953 14.9125 14.6173 14.9796 15.2847L15.4308 19.7605L14.4131 17.3218L13.5847 5.37472C13.5804 5.31448 13.5736 5.2551 13.5654 5.19614C13.5637 5.18289 13.5616 5.17007 13.5599 5.15683C13.5509 5.10001 13.5407 5.04361 13.5283 4.98764C13.5261 4.97824 13.5236 4.96841 13.5214 4.95901C13.5099 4.90945 13.4971 4.86118 13.483 4.8129C13.4796 4.80179 13.4761 4.78983 13.4727 4.77872C13.4565 4.72617 13.4385 4.6749 13.4189 4.62405C13.4138 4.61038 13.4082 4.59671 13.4027 4.58304C13.3847 4.53818 13.3655 4.49417 13.3454 4.45102C13.3416 4.44247 13.3381 4.43393 13.3339 4.42624C13.3112 4.37839 13.2864 4.33225 13.2608 4.28696C13.2527 4.272 13.2441 4.25705 13.2356 4.2421C13.2095 4.19809 13.1826 4.15451 13.1544 4.11264C13.1467 4.10111 13.1386 4.09 13.1305 4.07846C13.107 4.04428 13.0826 4.01096 13.0574 3.97849C13.0472 3.96482 13.0365 3.95114 13.0262 3.9379C12.9951 3.89902 12.963 3.86142 12.9297 3.82468C12.9186 3.81229 12.907 3.80033 12.8955 3.78794C12.8665 3.75717 12.8374 3.72769 12.8071 3.69907C12.7981 3.6901 12.7891 3.68112 12.7797 3.67215C12.7426 3.63755 12.7045 3.60465 12.6652 3.57218C12.6533 3.56235 12.6413 3.55295 12.6289 3.54312C12.5883 3.51065 12.5465 3.47946 12.5042 3.44956C12.4986 3.44614 12.493 3.44272 12.4879 3.4393C12.4465 3.41111 12.4042 3.38419 12.361 3.35898C12.3521 3.35343 12.3431 3.3483 12.3341 3.34317C12.2867 3.3154 12.238 3.28977 12.1884 3.26584C12.1829 3.26285 12.1769 3.26029 12.1713 3.25772C12.1196 3.23337 12.0675 3.2103 12.0141 3.18979V3.18979C11.959 3.16843 11.9017 3.14878 11.8445 3.13169C11.8424 3.13126 11.8389 3.12955 11.8389 3.12955L11.8099 2.93045C11.7736 2.67838 11.8325 2.43015 11.9722 2.24943ZM7.53528 5.06497C7.60791 4.97867 7.73566 4.87271 7.93177 4.86203L11.1673 4.67703H11.1694C11.1733 4.67703 11.1776 4.67746 11.1814 4.67703C11.5659 4.6655 11.9167 5.03079 11.9483 5.48794L12.4413 12.5964L12.0342 11.6206C11.7877 11.0306 11.3365 10.5623 10.7631 10.303C10.6922 10.2705 10.62 10.2428 10.5474 10.2175C10.5431 10.2163 10.5388 10.2146 10.5346 10.2128C10.4645 10.1893 10.3944 10.1701 10.3235 10.153C10.3167 10.1518 10.3094 10.1496 10.3026 10.1479C10.2333 10.1321 10.1641 10.1206 10.0945 10.1112C10.0859 10.1099 10.077 10.1086 10.0684 10.1077C10.0001 10.0996 9.93128 10.0945 9.86292 10.0928C9.85309 10.0928 9.84369 10.0924 9.83429 10.0919C9.82276 10.0919 9.81122 10.0911 9.80011 10.0911C9.7638 10.0911 9.72791 10.0945 9.69159 10.0962C9.66083 10.0979 9.62964 10.0983 9.59888 10.1009C9.55274 10.1052 9.50702 10.1129 9.46088 10.1197C9.43226 10.1244 9.4032 10.127 9.37458 10.1325C9.32459 10.1428 9.27503 10.156 9.22504 10.1693C9.20154 10.1757 9.17762 10.1804 9.15369 10.1872C9.08063 10.2094 9.00843 10.2351 8.93708 10.265L7.95527 10.6756L7.80701 9.41646L7.36823 5.68789C7.34089 5.45163 7.40155 5.22476 7.53528 5.06497ZM6.60987 13.016L7.09565 12.8126L7.58399 12.6088L9.57026 11.7783C9.78473 11.689 9.98597 11.7518 10.0868 11.7971C10.2803 11.8851 10.4341 12.0466 10.5205 12.2525L14.6054 22.0411C13.9914 21.2994 13.4988 20.4612 13.1489 19.5494C12.869 18.8201 12.1863 18.3489 11.4096 18.3489H8.42353L6.33686 13.9577C6.24073 13.7551 6.22663 13.5313 6.29883 13.3428C6.31379 13.3027 6.336 13.2574 6.36676 13.2125C6.41846 13.1378 6.49537 13.0639 6.60987 13.016ZM1.65979 8.95632C1.61365 8.73372 1.6521 8.51455 1.76532 8.35519C1.82642 8.26974 1.93708 8.1625 2.11994 8.13857L5.279 7.7203C5.55671 7.68398 5.85022 7.86214 6.0066 8.15267L6.18006 9.62539L6.38086 11.3335L5.97712 11.5027C5.41614 11.7373 4.98633 12.1824 4.76673 12.7567C4.53473 13.3621 4.5672 14.0563 4.85517 14.6617L6.6073 18.3493H3.60035L1.65979 8.95632ZM41.3381 20.2476L38.7473 35.2763H33.3824C32.9295 35.2763 32.5621 35.6433 32.5621 36.0966C32.5621 36.5495 32.9295 36.9169 33.3824 36.9169H38.4645L37.6113 41.8653H33.4905C33.0372 41.8653 32.6702 42.2323 32.6702 42.6856C32.6702 43.1389 33.0372 43.5059 33.4905 43.5059H37.3284L35.4891 54.1764C35.4708 54.2823 35.3793 54.3592 35.2717 54.3592H7.71045C7.60279 54.3592 7.51136 54.2823 7.49299 54.1764L5.65369 43.5059H9.49164C9.94452 43.5059 10.312 43.1389 10.312 42.6856C10.312 42.2323 9.94452 41.8653 9.49164 41.8653H5.37085L4.51764 36.9169H9.62494C10.0778 36.9169 10.4453 36.5495 10.4453 36.0966C10.4453 35.6433 10.0778 35.2763 9.62494 35.2763H4.23481L1.64399 20.2476C1.62946 20.1638 1.66236 20.104 1.69269 20.0681C1.7226 20.0322 1.77643 19.9895 1.86145 19.9895H11.4096C11.5014 19.9895 11.5826 20.0476 11.6172 20.1373C12.3756 22.1125 13.6957 23.8001 15.4355 25.0177C17.2158 26.2644 19.3102 26.9233 21.4913 26.9233C21.6032 26.9233 21.7164 26.9207 21.8309 26.9168C21.8843 26.9151 21.9382 26.913 21.992 26.9104C22.039 26.9079 22.0864 26.9053 22.1339 26.9023C22.6329 26.8724 23.1255 26.8083 23.61 26.7096L23.6143 26.7088C25.0203 26.4225 26.3542 25.8526 27.5466 25.0177C29.2864 23.8001 30.6066 22.1125 31.3649 20.1373C31.3995 20.0476 31.4811 19.9895 31.5726 19.9895H41.1211C41.2057 19.9895 41.2595 20.0322 41.2894 20.0677C41.3198 20.104 41.3522 20.1638 41.3381 20.2476Z" fill="#605959"/>
</svg>

<svg xmlns="http://www.w3.org/2000/svg" viewBox="0 0 42.98 56"><defs><style>.cls-1{fill:#605959;}</style></defs><g id="Layer_2" data-name="Layer 2"><g id="Layer_2-2" data-name="Layer 2"><path class="cls-1" d="M41.12,18.35h-.06l1.87-9.06a2.41,2.41,0,0,0-.38-1.89,2.14,2.14,0,0,0-1.47-.89l-3.16-.42a2.41,2.41,0,0,0-.71,0l0-.23A2.44,2.44,0,0,0,36.7,4a2.2,2.2,0,0,0-1.56-.79L32.8,3.09a2.54,2.54,0,0,0-.49-1.84A2.25,2.25,0,0,0,30.78.38L27.52,0a2.29,2.29,0,0,0-1.68.51,2.6,2.6,0,0,0-.93,1.75l-.29,3.08A2.16,2.16,0,0,0,24.35,5a2.26,2.26,0,0,0-1.61-.69H19.5a2.22,2.22,0,0,0-1.2.36l-.23-2.42A2.6,2.6,0,0,0,17.14.52,2.29,2.29,0,0,0,15.46,0L12.2.38a2.25,2.25,0,0,0-1.53.87,2.54,2.54,0,0,0-.49,1.84l-2.34.13A2.22,2.22,0,0,0,6.28,4a2.48,2.48,0,0,0-.54,1.87l0,.24a2.11,2.11,0,0,0-.71,0L1.9,6.51A2.16,2.16,0,0,0,.43,7.4,2.41,2.41,0,0,0,.05,9.29l1.88,9.06H1.86A1.84,1.84,0,0,0,.44,19,1.82,1.82,0,0,0,0,20.53L5.88,54.46A1.85,1.85,0,0,0,7.71,56H35.27a1.87,1.87,0,0,0,1.84-1.54L43,20.53A1.82,1.82,0,0,0,42.54,19,1.84,1.84,0,0,0,41.12,18.35ZM37,8.15a.73.73,0,0,1,.72-.43l3.16.42a.5.5,0,0,1,.36.22.75.75,0,0,1,.1.6l-1.94,9.39h-1.2L39,12a2.29,2.29,0,0,0-.5-1.75,2.13,2.13,0,0,0-1.54-.76h-.13Zm-1.12,3,1,.05a.48.48,0,0,1,.36.18.6.6,0,0,1,.13.49l-.82,6.51H32.7l.44-2.59a2.21,2.21,0,0,0-.3-1.53L33,11.7a.78.78,0,0,1,.34-.59.62.62,0,0,1,.38-.1l2.1.11ZM31.78,4.68h0l3.23.18a.59.59,0,0,1,.4.2.84.84,0,0,1,.16.63l-.25,2.14-.19,1.61-1.33-.07a2.37,2.37,0,0,0-2.44,2.2l-.13,1.63-.76-.12L31,5.49A.83.83,0,0,1,31.78,4.68Zm-.26,10.8L31,18.43a1.86,1.86,0,0,0-1.19,1.12,8.89,8.89,0,0,1-3.22,4.12c-.16.11-.32.22-.49.32l1.32-9.15a.63.63,0,0,1,.23-.38.55.55,0,0,1,.43-.1l1.4.22h0l1.55.24a.61.61,0,0,1,.37.23A.56.56,0,0,1,31.52,15.48Zm-6.81,5.93,1.84-19a.92.92,0,0,1,.32-.64.65.65,0,0,1,.47-.15L30.6,2a.58.58,0,0,1,.41.24.89.89,0,0,1,.16.68l0,.2h0l-.05,0-.15.06h0l-.28.15,0,0-.17.11h0l-.08.07,0,0-.14.12,0,0L30,3.84,30,3.92,29.91,4l0,.06-.06.09-.06.09,0,.06-.06.12,0,0-.05.12,0,0s0,.1,0,.15v0a.83.83,0,0,0,0,.15V5l0,.17v0a.88.88,0,0,0,0,.17l-.52,7.45-.53-.08a2.15,2.15,0,0,0-1.65.4,2.21,2.21,0,0,0-.88,1.47l-1.13,7.82ZM19.06,6.16A.67.67,0,0,1,19.5,6h3.24a.63.63,0,0,1,.44.2.85.85,0,0,1,.23.61L23.08,21l-.32-6.13A2.49,2.49,0,0,0,22,13.17a2.25,2.25,0,0,0-1.71-.65L19,12.59l0-1.08-.12-4.73A.85.85,0,0,1,19.06,6.16Zm1.33,8a.65.65,0,0,1,.48.19.92.92,0,0,1,.26.57l.54,10.36h-.18a8.94,8.94,0,0,1-3.95-.91l-.93-9.25a.8.8,0,0,1,.17-.59.57.57,0,0,1,.41-.2ZM12,2.25A.6.6,0,0,1,12.38,2l3.26-.37a.65.65,0,0,1,.47.15,1,1,0,0,1,.33.64l.88,9.15,0,1.09-.25,0a2.16,2.16,0,0,0-1.56.77A2.43,2.43,0,0,0,15,15.28l.45,4.48-1-2.44L13.58,5.37c0-.06,0-.11,0-.17v0l0-.17V5a.83.83,0,0,0,0-.15v0a1,1,0,0,0-.05-.16l0,0s0-.09-.05-.13l0,0a.61.61,0,0,0-.07-.14l0,0-.09-.13,0,0a.86.86,0,0,0-.07-.1l0,0-.1-.12,0,0-.09-.09,0,0-.11-.1,0,0-.13-.09h0l-.13-.08,0,0-.14-.07h0L12,3.19l-.17-.06h0l0-.2A.89.89,0,0,1,12,2.25ZM7.54,5.06a.56.56,0,0,1,.39-.2l3.24-.18h0a.82.82,0,0,1,.77.81l.49,7.11-.41-1a2.45,2.45,0,0,0-1.27-1.32l-.21-.08h0l-.21-.06h0l-.21,0h0l-.21,0H9.6l-.14,0H9.37l-.14,0-.08,0-.21.07-1,.42L7.81,9.42,7.37,5.69A.8.8,0,0,1,7.54,5.06ZM7.1,12.81l.48-.2,2-.83a.64.64,0,0,1,.52,0,.9.9,0,0,1,.43.45L14.61,22a8.77,8.77,0,0,1-1.46-2.49,1.85,1.85,0,0,0-1.74-1.2h-3L6.34,14a.79.79,0,0,1,0-.62.56.56,0,0,1,.07-.13A.52.52,0,0,1,6.61,13ZM1.66,9a.71.71,0,0,1,.11-.6.48.48,0,0,1,.35-.22l3.16-.42A.76.76,0,0,1,6,8.15l.17,1.48.2,1.7L6,11.5a2.21,2.21,0,0,0-1.21,1.26,2.38,2.38,0,0,0,.09,1.9l1.75,3.69h-3ZM4.23,35.28l-2.59-15a.22.22,0,0,1,.05-.18A.21.21,0,0,1,1.86,20h9.55a.24.24,0,0,1,.21.15,10.57,10.57,0,0,0,9.87,6.78h.64a10.32,10.32,0,0,0,1.48-.19h0A10.69,10.69,0,0,0,27.55,25a10.52,10.52,0,0,0,3.81-4.88.24.24,0,0,1,.21-.15h9.55a.2.2,0,0,1,.17.08.22.22,0,0,1,.05.18l-2.59,15h0l-.28,1.64h0l-.85,4.95h0l-.28,1.64h0L35.49,54.18a.23.23,0,0,1-.22.18H7.71a.23.23,0,0,1-.22-.18L5.65,43.51h0l-.27-1.64h0l-.85-4.95"/></g></g></svg>
